X: 5056
T: Bríd Óg Ní Mháille
R: waltz
M: 3/4
K: Cmajor
ED|C2 CD EF|G2 E3 G|A2 GE DE|C2 A,2 AB|
c2 B2 AB|AG E3 D|E2 A3 B|A4 AB|
c2 B2 AB|AG E3 E|G2 E2 DE|C2 A,2 A,B,|
C2 A2 GA|E2 D3 E|D2 C2 B,2|C4||

